public/icons/tokens/bal.svg

<svg width="46" height="46" viewBox="0 0 46 46" fill="none" xmlns="http://www.w3.org/2000/svg">
  <path d="M45.75 23C45.75 35.5645 35.5645 45.75 23 45.75C10.4355 45.75 0.25 35.5645 0.25 23C0.25 10.4355 10.4355 0.25 23 0.25C35.5645 0.25 45.75 10.4355 45.75 23Z" fill="white" stroke="#383D51" stroke-width="0.5"/>
  <path fill-rule="evenodd" clip-rule="evenodd" d="M29.1753 25.7177C34.5343 26.5032 38.2734 28.28 38.2734 30.346C38.2734 33.14 31.4352 35.405 23 35.405C14.5647 35.405 7.72656 33.1409 7.72656 30.346C7.72656 28.2796 11.4657 26.5032 16.8247 25.7177C18.8591 26.1135 20.9275 26.3082 23 26.2989C25.0252 26.3073 27.0465 26.122 29.0364 25.7455L29.1753 25.7177Z" fill="black"/>
  <path fill-rule="evenodd" clip-rule="evenodd" d="M26.8738 17.2679C31.7383 17.8038 35.2458 19.3207 35.2458 21.1084C35.2458 23.3435 29.7634 25.1555 23.0003 25.1555C16.2372 25.1555 10.7544 23.3435 10.7544 21.1084C10.7544 19.3207 14.2615 17.8038 19.1259 17.2679C20.4072 17.4704 21.7027 17.5704 22.9999 17.5671C24.2547 17.57 25.5079 17.4767 26.7484 17.2879L26.8738 17.2679Z" fill="black"/>
  <path d="M22.9999 16.6721C28.0169 16.6721 32.0839 15.3132 32.0839 13.6368C32.0839 11.9605 28.0169 10.6016 22.9999 10.6016C17.983 10.6016 13.916 11.9605 13.916 13.6368C13.916 15.3132 17.983 16.6721 22.9999 16.6721Z" fill="black"/>
</svg>

<svg width="46" height="46" fill="none" xmlns="http://www.w3.org/2000/svg"><path d="M45.75 23c0 12.565-10.185 22.75-22.75 22.75S.25 35.565.25 23 10.435.25 23 .25 45.75 10.435 45.75 23Z" fill="#fff" stroke="#383D51" stroke-width=".5"/><path fill-rule="evenodd" clip-rule="evenodd" d="M29.175 25.718c5.36.785 9.098 2.562 9.098 4.628 0 2.794-6.838 5.059-15.273 5.059-8.435 0-15.273-2.264-15.273-5.059 0-2.066 3.739-3.843 9.098-4.628a31.59 31.59 0 0 0 6.175.58 31.761 31.761 0 0 0 6.036-.552l.14-.028Zm-2.301-8.45c4.864.536 8.372 2.053 8.372 3.84 0 2.235-5.483 4.047-12.246 4.047-6.763 0-12.246-1.812-12.246-4.047 0-1.787 3.508-3.304 8.372-3.84a24.42 24.42 0 0 0 3.874.3 24.613 24.613 0 0 0 3.748-.28l.126-.02Z" fill="#000"/><path d="M23 16.672c5.017 0 9.084-1.359 9.084-3.035 0-1.677-4.067-3.035-9.084-3.035-5.017 0-9.084 1.358-9.084 3.035 0 1.676 4.067 3.035 9.084 3.035Z" fill="#000"/></svg>
